icons/type-icons/icons/image-x-psd.svg

<?xml version="1.0" encoding="UTF-8" standalone="no"?>

<!-- Created with Inkscape (http://www.inkscape.org/) -->
<svg width="22" version="1.1" xmlns="http://www.w3.org/2000/svg" height="22" xmlns:inkscape="http://www.inkscape.org/namespaces/inkscape">
 <defs id="defs3871"/>
 <metadata id="metadata3874"/>
 <g inkscape:label="Capa 1" inkscape:groupmode="layer" id="layer1" transform="matrix(1 0 0 1 -326 -534.3622)">
  <path style="fill:#3a539b;stroke-width:6" id="path4831" d="M 7 3 C 4.7908611 3.0000003 3.0000003 4.7908611 3 7 L 3 8 L 3.3144531 8.4941406 L 4.1113281 9.7480469 C 4.1119596 9.7487175 4.1126494 9.7493298 4.1132812 9.75 L 10 19 L 10 11 L 15 11 C 17.209139 11 19 9.2091389 19 7 C 19 4.7908611 17.209139 3.0000003 15 3 L 7 3 z M 15 4 A 3 3 0 0 1 15.576172 4.0585938 A 3 3 0 0 1 15.595703 4.0605469 C 15.613785 4.0641866 15.630474 4.0702555 15.648438 4.0742188 A 3 3 0 0 1 16.167969 4.2363281 A 3 3 0 0 1 16.646484 4.4941406 C 16.659939 4.5029989 16.674198 4.5104634 16.6875 4.5195312 A 3 3 0 0 1 16.693359 4.5234375 A 3 3 0 0 1 17.103516 4.8632812 C 17.111714 4.8713527 17.120801 4.8785542 17.128906 4.8867188 A 3 3 0 0 1 17.451172 5.2773438 C 17.468741 5.3022899 17.487086 5.3260646 17.503906 5.3515625 A 3 3 0 0 1 17.746094 5.8007812 C 17.753865 5.8185508 17.762096 5.8355684 17.769531 5.8535156 A 3 3 0 0 1 17.923828 6.3457031 C 17.929966 6.3732473 17.937984 6.3999104 17.943359 6.4277344 A 3 3 0 0 1 18 7 A 3 3 0 0 1 17.941406 7.5761719 A 3 3 0 0 1 17.939453 7.5957031 C 17.935813 7.6137845 17.929745 7.6304754 17.925781 7.6484375 A 3 3 0 0 1 17.763672 8.1679688 A 3 3 0 0 1 17.505859 8.6464844 C 17.497001 8.6599387 17.489537 8.6741979 17.480469 8.6875 A 3 3 0 0 1 17.476562 8.6933594 A 3 3 0 0 1 17.136719 9.1035156 C 17.128647 9.1117138 17.121446 9.120801 17.113281 9.1289062 A 3 3 0 0 1 16.722656 9.4511719 C 16.69771 9.4687411 16.673935 9.4870866 16.648438 9.5039062 A 3 3 0 0 1 16.199219 9.7460938 C 16.181449 9.7538646 16.164432 9.7620965 16.146484 9.7695312 A 3 3 0 0 1 15.654297 9.9238281 C 15.626753 9.9299663 15.60009 9.9379844 15.572266 9.9433594 A 3 3 0 0 1 15 10 A 3 3 0 0 1 12 7 A 3 3 0 0 1 15 4 z " transform="matrix(1 0 0 1 326 534.3622)"/>
 </g>
</svg>

<?xml version="1.0" encoding="UTF-8"?><svg width="22" height="22" version="1.1" xmlns="http://www.w3.org/2000/svg">
 <g id="layer1" transform="translate(-326 -534.36)">
  <path id="path4831" transform="translate(326 534.36)" d="m7 3c-2.2091 3e-7 -4 1.7909-4 4v1l0.31445 0.49414 0.79688 1.2539c6.315e-4 6.706e-4 0.0013213 0.0012829 0.0019531 0.0019531l5.8867 9.25v-8h5c2.2091 0 4-1.7909 4-4s-1.7909-4-4-4h-8zm8 1a3 3 0 0 1 0.57617 0.058594 3 3 0 0 1 0.019531 0.0019531c0.018082 0.0036397 0.034771 0.0097086 0.052735 0.013672a3 3 0 0 1 0.51953 0.16211 3 3 0 0 1 0.47852 0.25781c0.013455 0.0088583 0.027714 0.016323 0.041016 0.025391a3 3 0 0 1 0.005859 0.0039063 3 3 0 0 1 0.41016 0.33984c0.008198 0.0080715 0.017285 0.015273 0.02539 0.023438a3 3 0 0 1 0.32227 0.39062c0.017569 0.024946 0.035914 0.048721 0.052734 0.074219a3 3 0 0 1 0.24219 0.44922c0.007771 0.01777 0.016002 0.034787 0.023437 0.052734a3 3 0 0 1 0.1543 0.49219c0.006138 0.027544 0.014156 0.054207 0.019531 0.082031a3 3 0 0 1 0.056641 0.57227 3 3 0 0 1-0.058594 0.57617 3 3 0 0 1-0.001953 0.019531c-0.00364 0.018081-0.009708 0.034772-0.013672 0.052734a3 3 0 0 1-0.16211 0.51953 3 3 0 0 1-0.25781 0.47852c-0.008858 0.013454-0.016322 0.027714-0.02539 0.041016a3 3 0 0 1-0.003907 0.0058594 3 3 0 0 1-0.33984 0.41016c-0.008072 0.0081982-0.015273 0.017285-0.023438 0.025391a3 3 0 0 1-0.39062 0.32227c-0.024946 0.017569-0.048721 0.035915-0.074218 0.052734a3 3 0 0 1-0.44922 0.24219c-0.01777 0.0077708-0.034787 0.016003-0.052735 0.023437a3 3 0 0 1-0.49219 0.1543c-0.027544 0.0061382-0.054207 0.014156-0.082031 0.019531a3 3 0 0 1-0.57227 0.056641 3 3 0 0 1-3-3 3 3 0 0 1 3-3z" fill="#3a539b" stroke-width="6"/>
 </g>
</svg>
